X:1
T:Angels from the Realms of Glory
T:Angels from the Realms of Glory
T:Henry Thomas Smart, 1867
T:James Montgomery, 1816
T:Public Domain Courtesy of the Cyber Hymnal™
T:Public Domain Courtesy of the Cyber Hymnal™
C:Henry Thomas Smart, 1867
Z:Public Domain
Z:Courtesy of the Cyber Hymnal™
%%score ( 1 2 ) ( 3 4 )
L:1/8
Q:1/4=118
M:4/4
K:Bb
V:1 treble 
V:2 treble 
V:3 bass 
V:4 bass 
V:1
 [DF]2 [B,D]2 [FB]2 [DF]2 | [Fd]3 [Fc] [FB]2 F2 | [B,G]2 [B,G]2 [B,F]2 [B,B]2 | %3
w: 1.~An- gels from the|realms of glor- y,|Wing your flight o’er|
w: 2.~Shep- herds, in the|field a- bid- ing,|Watch- ing o’er your|
w: 3.~Sag- es, leave your|con- tem- pla- tions,|Bright- er vi- sions|
w: 4.~Saints, be- fore the|al- tar bend- ing,|Watch- ing long in|
w: 5.~Sin- ners, wrung with|true re- pent- ance,|Doomed for guilt to|
w: 6.~Though an In- fant|now we view Him,|He shall fill His|
w: 7.~All cre- a- tion,|join in prais- ing|God, the Fa- ther,|
 [CF]2 [A,E]2 [B,D]4 | [DF]2 [B,D]2 [FB]2 F2 | [Dd]3 [Ec] [DB]2 [DA]2 | [DB]2 [DA]2 [DG]2 (AB) | %7
w: all the earth;|Ye who sang cre-|a- tion’s stor- y|Now pro- claim Mes- *|
w: flocks by night,|God with us is|now re- sid- ing;|Yon- der shines the *|
w: beam a- far;|Seek the great De-|sire of na- tions;|Ye have seen His *|
w: hope and fear;|Sud- den- ly the|Lord, de- scend- ing,|In His tem- ple *|
w: end- less pains,|Jus- tice now re-|vokes the sent- ence,|Mer- cy calls you, *|
w: Fa- ther’s throne,|Ga- ther all the|na- tions to Him;|Eve- ry knee shall *|
w: Spir- it, Son,|Ev- er- more your|voic- es rais- ing|To th’e- ter- nal *|
 [FA]2 [=EG]2 F4 ||"^Refrain" [Fc]3 [Fc] [FA]2 F2 | [Fd]3 [Dc] [EB]2 [EG]2 | [Ge]2 [Fd]2 [Ec]2 B2 | %11
w: si- ah’s birth.||||
w: in- fant light:||||
w: na- tal star.||||
w: shall ap- pear.||||
w: break your chains.||||
w: then bow down.|Come and wor- ship,|come and wor- ship,|Wor- ship Christ, the|
w: Three in One.||||
 B2 (z E) [DB]4 |] %12
w: |
w: |
w: |
w: |
w: |
w: new- * born|
w: |
V:2
 x8 | x6 F2 | x8 | x8 | x6 (FE) | x8 | x6 D2 | x4 F4 || x6 F2 | x8 | x6 (DE) | F3 A2 x3 |] %12
V:3
 [B,,B,]2 [B,,F,]2 [D,F,]2 [B,,B,]2 | [F,B,]3 [E,A,] [D,B,]2 [D,B,]2 | %2
 [E,G,]2 [E,B,]2 [D,F,]2 [G,,G,]2 | [A,,F,]2 [F,,F,]2 [B,,F,]4 | B,2 [F,B,]2 [D,F,]2 F,2 | %5
 [B,,B,]3 [C,A,] [D,G,]2 [D,^F,]2 | G,2 [D,^F,]2 [B,,D]2 (CB,) | [C,C]2 [C,B,]2 [F,,A,]4 || %8
 [F,A,]3 [F,A,] [F,C]2 [F,A,]2 | [B,,B,]3 [B,,_A,] [E,G,]2 [E,B,]2 | %10
 [C,C]2 [D,F,]2 ([E,G,][F,A,]) [G,B,]2 | [F,C]2 [F,,C]2 [B,,B,]4 |] %12
V:4
 x8 | x8 | x8 | x8 | B,2 x2 (D,C,) x2 | x8 | x6 G,,2 | x8 || x8 | x8 | x8 | x8 |] %12

